assets/svg/ahk_scan_codes.svg

<svg width="50" height="50" viewBox="0 0 50 50" fill="none" xmlns="http://www.w3.org/2000/svg">
<path d="M47.2222 0.347222H2.77778C1.43543 0.347222 0.347229 1.43542 0.347229 2.77778V47.2222C0.347229 48.5646 1.43543 49.6528 2.77778 49.6528H47.2222C48.5646 49.6528 49.6528 48.5646 49.6528 47.2222V2.77778C49.6528 1.43542 48.5646 0.347222 47.2222 0.347222Z" fill="#B0C1D4"/>
<path d="M47.2222 0.694444C47.7748 0.694444 48.3047 0.913938 48.6954 1.30464C49.0861 1.69534 49.3056 2.22524 49.3056 2.77778V47.2222C49.3056 47.7748 49.0861 48.3047 48.6954 48.6954C48.3047 49.0861 47.7748 49.3056 47.2222 49.3056H2.77778C2.22524 49.3056 1.69534 49.0861 1.30464 48.6954C0.913938 48.3047 0.694444 47.7748 0.694444 47.2222V2.77778C0.694444 2.22524 0.913938 1.69534 1.30464 1.30464C1.69534 0.913938 2.22524 0.694444 2.77778 0.694444H47.2222ZM47.2222 0H2.77778C2.04107 0 1.33453 0.292658 0.813592 0.813592C0.292658 1.33453 0 2.04107 0 2.77778V47.2222C0 47.9589 0.292658 48.6655 0.813592 49.1864C1.33453 49.7073 2.04107 50 2.77778 50H47.2222C47.9589 50 48.6655 49.7073 49.1864 49.1864C49.7073 48.6655 50 47.9589 50 47.2222V2.77778C50 2.04107 49.7073 1.33453 49.1864 0.813592C48.6655 0.292658 47.9589 0 47.2222 0Z" fill="#66798F"/>
<path d="M47.2222 0.694444H2.77778C1.62718 0.694444 0.694443 1.62718 0.694443 2.77778V43.0556C0.694443 44.2061 1.62718 45.1389 2.77778 45.1389H47.2222C48.3728 45.1389 49.3056 44.2061 49.3056 43.0556V2.77778C49.3056 1.62718 48.3728 0.694444 47.2222 0.694444Z" fill="#D8E2ED"/>
<path d="M17.9167 31.6389H8.33333V13.5833H17.5139V15.5H10.4514V21.5139H16.9861V23.4167H10.4514V29.7222H17.9167V31.6389ZM20.3403 31.1736V28.9583C21.41 29.7726 22.7181 30.2119 24.0625 30.2083C25.8773 30.2083 26.7847 29.6019 26.7847 28.3889C26.7934 28.0804 26.7113 27.7762 26.5486 27.5139C26.3815 27.2619 26.1668 27.0449 25.9167 26.875C25.6293 26.6807 25.322 26.5178 25 26.3889L23.8472 25.9306C23.3324 25.7273 22.8293 25.4955 22.3403 25.2361C21.9425 25.0293 21.5775 24.7648 21.2569 24.4514C20.9733 24.1688 20.7511 23.8307 20.6042 23.4583C20.4479 23.0436 20.3725 22.6028 20.3819 22.1597C20.3705 21.5946 20.5147 21.0373 20.7986 20.5486C21.0776 20.0801 21.4571 19.6792 21.9097 19.375C22.3948 19.0563 22.9301 18.8216 23.4931 18.6806C24.0908 18.5191 24.7072 18.4373 25.3264 18.4375C26.3561 18.4214 27.3778 18.62 28.3264 19.0208V21.1042C27.3405 20.4539 26.1808 20.1173 25 20.1389C24.646 20.1342 24.2932 20.1786 23.9514 20.2708C23.6655 20.3487 23.3953 20.4756 23.1528 20.6458C22.9401 20.7966 22.7643 20.9937 22.6389 21.2222C22.5173 21.4483 22.4551 21.7016 22.4583 21.9583C22.4474 22.2513 22.5095 22.5425 22.6389 22.8056C22.7708 23.0436 22.9533 23.2499 23.1736 23.4097C23.4403 23.6035 23.7294 23.7644 24.0347 23.8889L25.1806 24.3542C25.7063 24.5583 26.221 24.7901 26.7222 25.0486C27.1419 25.2575 27.5319 25.5214 27.8819 25.8333C28.1932 26.1128 28.4437 26.4531 28.6181 26.8333C28.799 27.2589 28.8866 27.7183 28.875 28.1806C28.8984 28.7672 28.759 29.3488 28.4722 29.8611C28.1891 30.3333 27.802 30.7347 27.3403 31.0347C26.8424 31.3577 26.2928 31.5926 25.7153 31.7292C25.0834 31.8834 24.4351 31.9604 23.7847 31.9583C22.5897 31.9816 21.4072 31.7122 20.3403 31.1736ZM40.8889 31.0486C39.8157 31.6672 38.5924 31.9772 37.3542 31.9444C36.526 31.9777 35.7002 31.8346 34.9316 31.5245C34.163 31.2144 33.469 30.7445 32.8958 30.1458C31.7388 28.8767 31.1299 27.202 31.2014 25.4861C31.1121 23.604 31.7683 21.7626 33.0278 20.3611C33.6556 19.7137 34.4133 19.2064 35.2511 18.8724C36.0889 18.5385 36.9878 18.3856 37.8889 18.4236C38.924 18.4029 39.9501 18.619 40.8889 19.0556V21.1736C40.004 20.517 38.9351 20.155 37.8333 20.1389C37.2229 20.118 36.6154 20.2317 36.0538 20.4717C35.4921 20.7117 34.9901 21.0722 34.5833 21.5278C33.6976 22.5829 33.2503 23.9374 33.3333 25.3125C33.2587 26.6113 33.6807 27.8898 34.5139 28.8889C34.9193 29.3263 35.415 29.6702 35.9666 29.8968C36.5182 30.1235 37.1125 30.2274 37.7083 30.2014C38.8642 30.1912 39.9837 29.7953 40.8889 29.0764V31.0486Z" fill="#36404D"/>
<path d="M21.5568 36.9205L20.6534 37.1761C20.5966 37.0256 20.5128 36.8793 20.402 36.7372C20.294 36.5923 20.1463 36.473 19.9588 36.3793C19.7713 36.2855 19.5312 36.2386 19.2386 36.2386C18.8381 36.2386 18.5043 36.331 18.2372 36.5156C17.973 36.6974 17.8409 36.929 17.8409 37.2102C17.8409 37.4602 17.9318 37.6577 18.1136 37.8026C18.2955 37.9474 18.5795 38.0682 18.9659 38.1648L19.9375 38.4034C20.5227 38.5455 20.9588 38.7628 21.2457 39.0554C21.5327 39.3452 21.6761 39.7187 21.6761 40.1761C21.6761 40.5511 21.5682 40.8864 21.3523 41.1818C21.1392 41.4773 20.8409 41.7102 20.4574 41.8807C20.0739 42.0511 19.6278 42.1364 19.1193 42.1364C18.4517 42.1364 17.8991 41.9915 17.4616 41.7017C17.0241 41.4119 16.7472 40.9886 16.6307 40.4318L17.5852 40.1932C17.6761 40.5455 17.848 40.8097 18.1009 40.9858C18.3565 41.1619 18.6903 41.25 19.1023 41.25C19.571 41.25 19.9432 41.1506 20.2188 40.9517C20.4972 40.75 20.6364 40.5085 20.6364 40.2273C20.6364 40 20.5568 39.8097 20.3977 39.6562C20.2386 39.5 19.9943 39.3835 19.6648 39.3068L18.5739 39.0511C17.9744 38.9091 17.5341 38.6889 17.2528 38.3906C16.9744 38.0895 16.8352 37.7131 16.8352 37.2614C16.8352 36.892 16.9389 36.5653 17.1463 36.2812C17.3565 35.9972 17.642 35.7741 18.0028 35.6122C18.3665 35.4503 18.7784 35.3693 19.2386 35.3693C19.8864 35.3693 20.3949 35.5114 20.7642 35.7955C21.1364 36.0795 21.4006 36.4545 21.5568 36.9205ZM25.8491 42.1364C25.2354 42.1364 24.707 41.9915 24.2638 41.7017C23.8207 41.4119 23.4798 41.0128 23.2411 40.5043C23.0025 39.9957 22.8832 39.4148 22.8832 38.7614C22.8832 38.0966 23.0053 37.5099 23.2496 37.0014C23.4968 36.4901 23.8406 36.0909 24.2809 35.804C24.7241 35.5142 25.2411 35.3693 25.832 35.3693C26.2923 35.3693 26.707 35.4545 27.0763 35.625C27.4457 35.7955 27.7482 36.0341 27.984 36.3409C28.2198 36.6477 28.3661 37.0057 28.4229 37.4148H27.4173C27.3406 37.1165 27.1701 36.8523 26.9059 36.6222C26.6445 36.3892 26.2923 36.2727 25.8491 36.2727C25.457 36.2727 25.1133 36.375 24.8178 36.5795C24.5252 36.7812 24.2965 37.0668 24.1317 37.4361C23.9698 37.8026 23.8888 38.233 23.8888 38.7273C23.8888 39.233 23.9684 39.6733 24.1275 40.0483C24.2894 40.4233 24.5167 40.7145 24.8093 40.9219C25.1048 41.1293 25.4513 41.233 25.8491 41.233C26.1104 41.233 26.3477 41.1875 26.5607 41.0966C26.7738 41.0057 26.9542 40.875 27.1019 40.7045C27.2496 40.5341 27.3548 40.3295 27.4173 40.0909H28.4229C28.3661 40.4773 28.2255 40.8253 28.0011 41.1349C27.7795 41.4418 27.4854 41.6861 27.119 41.8679C26.7553 42.0469 26.332 42.1364 25.8491 42.1364ZM32.9442 33.2727V42H31.8874V34.3807H31.8363L29.7056 35.7955V34.7216L31.8874 33.2727H32.9442Z" fill="#FF0000"/>
</svg>

<svg xmlns="http://www.w3.org/2000/svg" width="50" height="50" fill="none" viewBox="0 0 50 50"><path fill="#b0c1d4" d="M47.222.347H2.778a2.43 2.43 0 0 0-2.43 2.43v44.445a2.43 2.43 0 0 0 2.43 2.43h44.444a2.43 2.43 0 0 0 2.43-2.43V2.778a2.43 2.43 0 0 0-2.43-2.43"/><path fill="#66798f" d="M47.222.694a2.083 2.083 0 0 1 2.084 2.084v44.444a2.083 2.083 0 0 1-2.084 2.084H2.778a2.083 2.083 0 0 1-2.084-2.084V2.778A2.083 2.083 0 0 1 2.778.694zm0-.694H2.778A2.78 2.78 0 0 0 0 2.778v44.444A2.78 2.78 0 0 0 2.778 50h44.444A2.78 2.78 0 0 0 50 47.222V2.778A2.78 2.78 0 0 0 47.222 0"/><path fill="#d8e2ed" d="M47.222.694H2.778c-1.15 0-2.084.933-2.084 2.084v40.278c0 1.15.933 2.083 2.084 2.083h44.444c1.15 0 2.084-.933 2.084-2.083V2.778c0-1.15-.933-2.084-2.084-2.084"/><path fill="#36404d" d="M17.917 31.639H8.333V13.583h9.18V15.5h-7.062v6.014h6.535v1.903h-6.535v6.305h7.466zm2.423-.465v-2.216a6.12 6.12 0 0 0 3.723 1.25q2.721 0 2.722-1.82a1.58 1.58 0 0 0-.236-.874 2.3 2.3 0 0 0-.632-.639 5 5 0 0 0-.917-.486l-1.153-.458a15 15 0 0 1-1.507-.695 4.6 4.6 0 0 1-1.083-.785 2.9 2.9 0 0 1-.653-.993 3.5 3.5 0 0 1-.222-1.298 3.1 3.1 0 0 1 .417-1.611c.279-.469.658-.87 1.11-1.174a5.2 5.2 0 0 1 1.584-.694 7 7 0 0 1 1.833-.244 7.4 7.4 0 0 1 3 .584v2.083A5.85 5.85 0 0 0 25 20.14a3.8 3.8 0 0 0-1.049.132 2.6 2.6 0 0 0-.798.375c-.213.15-.389.348-.514.576-.122.226-.184.48-.18.736-.012.293.05.585.18.848.132.238.314.444.535.604q.4.291.86.479l1.147.465q.788.306 1.541.695c.42.209.81.472 1.16.784.311.28.562.62.736 1 .181.426.269.885.257 1.348a3.2 3.2 0 0 1-.403 1.68c-.283.472-.67.874-1.132 1.174a5.2 5.2 0 0 1-1.625.694 8 8 0 0 1-1.93.23 7.3 7.3 0 0 1-3.445-.785m20.549-.125a6.7 6.7 0 0 1-3.535.895 5.85 5.85 0 0 1-4.458-1.798 6.51 6.51 0 0 1-1.695-4.66 7.16 7.16 0 0 1 1.827-5.125 6.4 6.4 0 0 1 4.86-1.937 6.8 6.8 0 0 1 3 .632v2.118a5.26 5.26 0 0 0-3.055-1.035 4.17 4.17 0 0 0-3.25 1.389 5.38 5.38 0 0 0-1.25 3.785 5.13 5.13 0 0 0 1.18 3.576 4.11 4.11 0 0 0 3.195 1.312 5.2 5.2 0 0 0 3.18-1.125z"/><path fill="red" d="m21.557 36.92-.904.256a1.7 1.7 0 0 0-.251-.439 1.2 1.2 0 0 0-.443-.358q-.282-.14-.72-.14-.6 0-1.002.277-.396.272-.396.694 0 .375.273.593.271.216.852.362l.971.238q.879.214 1.309.652.43.435.43 1.121 0 .562-.324 1.006a2.15 2.15 0 0 1-.895.699q-.575.255-1.338.255-1.001 0-1.657-.434-.657-.435-.831-1.27l.954-.239q.137.529.516.793.384.264 1.001.264.703 0 1.117-.298.417-.303.417-.725a.76.76 0 0 0-.238-.57q-.24-.235-.733-.35l-1.091-.256q-.9-.213-1.321-.66-.418-.452-.418-1.13 0-.554.311-.98.315-.426.857-.669a3 3 0 0 1 1.236-.243q.971 0 1.525.426.558.427.793 1.125m4.292 5.216q-.92 0-1.585-.434a2.83 2.83 0 0 1-1.023-1.198q-.358-.763-.358-1.743 0-.996.367-1.76.37-.766 1.03-1.197.666-.435 1.552-.435.69 0 1.244.256t.908.716.439 1.074h-1.006a1.56 1.56 0 0 0-.511-.793q-.392-.35-1.057-.35-.588 0-1.031.308a2 2 0 0 0-.686.856q-.243.55-.243 1.291 0 .759.239 1.321.242.562.681.874.444.31 1.04.311.392 0 .712-.136.32-.137.54-.392.223-.255.316-.614h1.006a2.33 2.33 0 0 1-1.304 1.777q-.546.268-1.27.268m7.095-8.863V42h-1.057v-7.62h-.05l-2.131 1.415v-1.073l2.181-1.45z"/></svg>
